Newaita-dark/mimetypes/48/payment-card-discover.svg

<svg height="48pt" viewBox="0 0 48 48" width="48pt" xmlns="http://www.w3.org/2000/svg" xmlns:xlink="http://www.w3.org/1999/xlink"><linearGradient id="a" gradientUnits="userSpaceOnUse" x1="24.807067" x2="24.807067" y1="39.0740565" y2="41.05862231253"><stop offset="0" stop-opacity=".27451"/><stop offset="1" stop-opacity="0"/></linearGradient><linearGradient id="b"><stop offset="0" stop-opacity=".313725"/><stop offset=".222222" stop-opacity=".27451"/><stop offset="1" stop-opacity="0"/></linearGradient><radialGradient id="c" cx="450.90894" cy="189.57936" gradientTransform="matrix(.00000026 -.117199 -.210958 -.00000015 80.18054 92.416155)" gradientUnits="userSpaceOnUse" r="21.166656" xlink:href="#b"/><radialGradient id="d" cx="450.90894" cy="189.57936" gradientTransform="matrix(-.00000026 .117199 .210958 .00000015 -32.550992 -14.268065)" gradientUnits="userSpaceOnUse" r="21.166656" xlink:href="#b"/><radialGradient id="e" cx="450.90894" cy="189.57936" gradientTransform="matrix(-.00000026 -.117199 .210958 -.00000015 -32.550992 92.416155)" gradientUnits="userSpaceOnUse" r="21.166656" xlink:href="#b"/><radialGradient id="f" cx="450.90894" cy="189.57936" gradientTransform="matrix(.00000026 .117199 -.210958 .00000015 80.180537 -14.268066)" gradientUnits="userSpaceOnUse" r="21.166656" xlink:href="#b"/><linearGradient id="g" gradientUnits="userSpaceOnUse" x1="23.814786" x2="23.814786" y1="46.02003312506" y2="2.35959181253"><stop offset="0" stop-color="#bdbdbd"/><stop offset="1" stop-color="#e0e0e0"/></linearGradient><linearGradient id="h"><stop offset="0" stop-color="#ff7043"/><stop offset="1" stop-color="#ffb74d"/></linearGradient><linearGradient id="i" gradientUnits="userSpaceOnUse" x1="23.814786" x2="23.814786" xlink:href="#h" y1="39.07405325" y2="9.30557075"/><linearGradient id="j" gradientUnits="userSpaceOnUse" x1="23.814816" x2="23.814816" y1="39.07411469922" y2="9.30559221851"><stop offset="0" stop-color="#424242"/><stop offset="1" stop-color="#616161"/></linearGradient><linearGradient id="k" gradientUnits="userSpaceOnUse" x1="24.80706937506" x2="24.80706937506" xlink:href="#h" y1="39.07405325" y2="9.30557075"/><path d="m6.945312 39.074219h33.738282v1.984375h-33.738282zm0 0" fill="url(#a)"/><path d="m40.683594 39.074219h3.96875v-1.984375h-3.96875zm0 0" fill="url(#c)"/><path d="m6.945312 39.074219h-3.96875v1.984375h3.96875zm0 0" fill="url(#d)"/><path d="m6.945312 39.074219h-3.96875v-1.984375h3.96875zm0 0" fill="url(#e)"/><path d="m40.683594 39.074219h3.96875v1.984375h-3.96875zm0 0" fill="url(#f)"/><path d="m5.953125 9.304688h35.722656c1.097657 0 1.984375.890624 1.984375 1.984374v25.800782c0 1.09375-.886718 1.984375-1.984375 1.984375h-35.722656c-1.09375 0-1.984375-.890625-1.984375-1.984375v-25.800782c0-1.09375.890625-1.984374 1.984375-1.984374zm0 0" fill="url(#g)"/><path d="m43.660156 24.453125c-8.261718 7.898437-22.253906 13.402344-38.53125 14.441406.25.117188.53125.179688.824219.179688h35.722656c1.097657 0 1.984375-.886719 1.984375-1.984375zm0 0" fill="url(#i)"/><path d="m5.953125 9.304688c-1.097656 0-1.984375.886718-1.984375 1.984374v.496094c0-1.097656.886719-1.984375 1.984375-1.984375h35.722656c1.097657 0 1.984375.886719 1.984375 1.984375v-.496094c0-1.097656-.886718-1.984374-1.984375-1.984374zm0 0" fill="#fff" fill-opacity=".588235"/><path d="m3.96875 36.609375v.480469c0 1.097656.886719 1.984375 1.984375 1.984375h35.722656c1.097657 0 1.984375-.886719 1.984375-1.984375v-.480469c0 1.101563-.886718 1.984375-1.984375 1.984375h-35.722656c-1.097656 0-1.984375-.882812-1.984375-1.984375zm0 0" fill-opacity=".235294"/><path d="m63.493937-115.759477h381.005282c11.707215 0 21.164646 9.499093 21.164646 21.164646v275.182054c0 11.665553-9.457431 21.164646-21.164646 21.164646h-381.005282c-11.665553 0-21.164646-9.499093-21.164646-21.164646v-275.182054c0-11.665553 9.499093-21.164646 21.164646-21.164646zm0 0" fill="none" stroke="#212121" stroke-linecap="round" stroke-linejoin="round" stroke-width="3" transform="matrix(.093759 0 0 .093759 0 20.158175)"/><path d="m1759.989432 985.732651c-333.039067 318.394796-897.079699 540.263375-1553.23752 582.14914 10.077778 4.723958 21.415278 7.243402 33.225174 7.243402h1440.019984c44.247743 0 79.992362-35.744618 79.992362-79.992362zm0 0" fill="none" stroke="#212121" stroke-linecap="round" stroke-linejoin="round" stroke-width="11.338583" transform="scale(.0248071)"/><path d="m20.878906 20.875c-1.28125 0-2.308594 1.007812-2.308594 2.269531 0 1.273438 1 2.261719 2.289063 2.261719.363281 0 .675781-.070312 1.058594-.25v-.996094c-.339844.339844-.636719.472656-1.019531.472656-.851563 0-1.457032-.617187-1.457032-1.492187 0-.832031.621094-1.492187 1.417969-1.492187.402344 0 .707031.144531 1.058594.488281v-.992188c-.371094-.191406-.675781-.269531-1.039063-.269531zm-4 .027344c-.765625 0-1.351562.53125-1.351562 1.242187 0 .597657.273437.902344 1.066406 1.191407.332031.113281.5.191406.585938.246093.167968.109375.253906.265625.253906.449219 0 .351562-.28125.609375-.660156.609375-.402344 0-.726563-.199219-.921876-.578125l-.546874.527344c.390624.570312.859374.824218 1.503906.824218.878906 0 1.492187-.582031 1.492187-1.421874 0-.691407-.285156-1.003907-1.246093-1.355469-.507813-.1875-.65625-.308594-.65625-.542969 0-.273438.265624-.480469.628906-.480469.253906 0 .464844.101563.683594.351563l.441406-.582032c-.363282-.316406-.796875-.480468-1.273438-.480468zm-6.695312.070312v4.335938h1.234375c.65625 0 1.132812-.152344 1.546875-.5.496094-.410156.789062-1.023438.789062-1.664063 0-1.277343-.957031-2.171875-2.328125-2.171875zm3.957031 0v4.335938h.847656v-4.335938zm12.402344 0 1.839843 4.449219h.457032l1.871094-4.449219h-.917969l-1.167969 2.914063-1.15625-2.914063zm4.550781 0v4.335938h2.398438v-.730469h-1.554688v-1.171875h1.496094v-.734375h-1.496094v-.960937h1.554688v-.738282zm2.957031 0v4.335938h.847657v-1.738282h.109374l1.171876 1.738282h1.039062l-1.367188-1.824219c.640626-.128906.988282-.566406.988282-1.230469 0-.8125-.558594-1.28125-1.535156-1.28125zm.847657.683594h.257812c.527344 0 .816406.222656.816406.644531 0 .433594-.289062.667969-.828125.667969h-.246093zm-23.871094.054688h.226562c.546875 0 .878906.097656 1.160156.347656.292969.261718.46875.664062.46875 1.082031 0 .414063-.175781.832031-.46875 1.089844-.265624.242187-.613281.347656-1.160156.347656h-.226562zm0 0" fill="url(#j)"/><path d="m24.558594 20.964844c1.234375 0 2.234375 1 2.234375 2.234375 0 1.230469-1 2.230469-2.234375 2.230469s-2.230469-1-2.230469-2.230469c0-1.234375.996094-2.234375 2.230469-2.234375zm0 0" fill="url(#k)"/><g fill="none" stroke="#212121"><path d="m841.65192 841.494455c-51.648611 0-93.06198 40.626042-93.06198 91.487328 0 51.333681 40.311112 91.172397 92.274654 91.172397 14.644271 0 27.241493-2.834375 42.673091-10.077778v-40.153647c-13.69948 13.69948-25.666841 19.053299-41.098438 19.053299-34.327431 0-58.73455-24.879514-58.73455-60.151737 0-33.540104 25.03698-60.151737 57.159897-60.151737 16.218924 0 28.501216 5.826216 42.673091 19.68316v-39.996181c-14.959202-7.715798-27.241494-10.865104-41.885765-10.865104zm-161.244446 1.102257c-30.863195 0-54.482987 21.415278-54.482987 50.073959 0 24.092188 11.02257 36.37448 42.988021 48.02691 13.384549 4.566493 20.155556 7.715799 23.619792 9.920313 6.771007 4.409028 10.235244 10.707639 10.235244 18.108507 0 14.171875-11.337501 24.564584-26.611633 24.564584-16.218924 0-29.288542-8.03073-37.161806-23.304862l-22.045139 21.257813c15.746528 22.989931 34.642362 33.225174 60.624133 33.225174 35.429688 0 60.151737-23.462327 60.151737-57.317362 0-27.871354-11.494966-40.468577-50.231425-54.640452-20.470486-7.558333-26.454167-12.439757-26.454167-21.887674 0-11.022569 10.707639-19.368229 25.35191-19.368229 10.235244 0 18.738369 4.094097 27.556424 14.171875l17.793577-23.462327c-14.644271-12.754687-32.122917-19.368229-51.333681-19.368229zm-269.89549 2.834375v174.786461h49.759029c26.454167 0 45.664931-6.141146 62.356251-20.155556 19.99809-16.533855 31.807986-41.255904 31.807986-67.080209 0-51.491147-38.578994-87.550696-93.849307-87.550696zm159.512329 0v174.786461h34.169965v-174.786461zm499.952263 0 74.166147 179.352954h18.423437l75.425869-179.352954h-37.00434l-47.082119 117.469099-46.609723-117.469099zm183.447051 0v174.786461h96.683682v-29.446008h-62.671182v-47.239584h60.309202v-29.603472h-60.309202v-38.736459h62.671182v-29.760938zm119.201217 0v174.786461h34.169965v-70.07205h4.409028l47.239584 70.07205h41.885765l-55.112848-73.536286c25.824306-5.196354 39.838715-22.832466 39.838715-49.601563 0-32.752778-22.517535-51.648612-61.883855-51.648612zm34.169965 27.556424h10.392709c21.257813 0 32.910243 8.975521 32.910243 25.981771 0 17.478646-11.65243 26.926563-33.382639 26.926563h-9.920313zm-962.270324 2.204514h9.132986c22.045139 0 35.429688 3.936632 46.767188 14.01441 11.809896 10.550174 18.895834 26.769097 18.895834 43.617882 0 16.69132-7.085938 33.540105-18.895834 43.932813-10.707639 9.762848-24.722049 14.01441-46.767188 14.01441h-9.132986zm0 0" stroke-width="11.338583" transform="scale(.0248071)"/><path d="m261.93332 8.603647c13.165409 0 23.831058 10.665648 23.831058 23.831057 0 13.123747-10.665649 23.789395-23.831058 23.789395s-23.789395-10.665648-23.789395-23.789395c0-13.165409 10.623986-23.831057 23.789395-23.831057zm0 0" stroke-linecap="round" stroke-linejoin="round" stroke-width="3" transform="matrix(.093759 0 0 .093759 0 20.158175)"/></g></svg>

<?xml version="1.0" encoding="UTF-8"?>
<svg xmlns="http://www.w3.org/2000/svg" xmlns:xlink="http://www.w3.org/1999/xlink" width="48pt" height="48pt" viewBox="0 0 48 48" version="1.1">
<defs>
<linearGradient id="linear0" gradientUnits="userSpaceOnUse" x1="254" y1="233.5" x2="254" y2="254.66667" gradientTransform="matrix(0.093759,0,0,0.093759,0.992281,17.18133)">
<stop offset="0" style="stop-color:rgb(0%,0%,0%);stop-opacity:0.27451;"/>
<stop offset="1" style="stop-color:rgb(0%,0%,0%);stop-opacity:0;"/>
</linearGradient>
<radialGradient id="radial0" gradientUnits="userSpaceOnUse" cx="450.90894" cy="189.57936" fx="450.90894" fy="189.57936" r="21.166656" gradientTransform="matrix(0.000000261256,-0.117199,-0.210958,-0.000000152308,80.18054,92.416155)">
<stop offset="0" style="stop-color:rgb(0%,0%,0%);stop-opacity:0.313725;"/>
<stop offset="0.222222" style="stop-color:rgb(0%,0%,0%);stop-opacity:0.27451;"/>
<stop offset="1" style="stop-color:rgb(0%,0%,0%);stop-opacity:0;"/>
</radialGradient>
<radialGradient id="radial1" gradientUnits="userSpaceOnUse" cx="450.90894" cy="189.57936" fx="450.90894" fy="189.57936" r="21.166656" gradientTransform="matrix(-0.000000261256,0.117199,0.210958,0.000000152308,-32.550992,-14.268065)">
<stop offset="0" style="stop-color:rgb(0%,0%,0%);stop-opacity:0.313725;"/>
<stop offset="0.222222" style="stop-color:rgb(0%,0%,0%);stop-opacity:0.27451;"/>
<stop offset="1" style="stop-color:rgb(0%,0%,0%);stop-opacity:0;"/>
</radialGradient>
<radialGradient id="radial2" gradientUnits="userSpaceOnUse" cx="450.90894" cy="189.57936" fx="450.90894" fy="189.57936" r="21.166656" gradientTransform="matrix(-0.000000261256,-0.117199,0.210958,-0.000000152308,-32.550992,92.416155)">
<stop offset="0" style="stop-color:rgb(0%,0%,0%);stop-opacity:0.313725;"/>
<stop offset="0.222222" style="stop-color:rgb(0%,0%,0%);stop-opacity:0.27451;"/>
<stop offset="1" style="stop-color:rgb(0%,0%,0%);stop-opacity:0;"/>
</radialGradient>
<radialGradient id="radial3" gradientUnits="userSpaceOnUse" cx="450.90894" cy="189.57936" fx="450.90894" fy="189.57936" r="21.166656" gradientTransform="matrix(0.000000261256,0.117199,-0.210958,0.000000152308,80.180537,-14.268066)">
<stop offset="0" style="stop-color:rgb(0%,0%,0%);stop-opacity:0.313725;"/>
<stop offset="0.222222" style="stop-color:rgb(0%,0%,0%);stop-opacity:0.27451;"/>
<stop offset="1" style="stop-color:rgb(0%,0%,0%);stop-opacity:0;"/>
</radialGradient>
<linearGradient id="linear1" gradientUnits="userSpaceOnUse" x1="254" y1="275.83334" x2="254" y2="-189.83333" gradientTransform="matrix(0.093759,0,0,0.093759,0,20.158175)">
<stop offset="0" style="stop-color:rgb(74.117647%,74.117647%,74.117647%);stop-opacity:1;"/>
<stop offset="1" style="stop-color:rgb(87.843137%,87.843137%,87.843137%);stop-opacity:1;"/>
</linearGradient>
<linearGradient id="linear2" gradientUnits="userSpaceOnUse" x1="254" y1="201.75" x2="254" y2="-115.75" gradientTransform="matrix(0.093759,0,0,0.093759,0,20.158175)">
<stop offset="0" style="stop-color:rgb(100%,43.921569%,26.27451%);stop-opacity:1;"/>
<stop offset="1" style="stop-color:rgb(100%,71.764706%,30.196078%);stop-opacity:1;"/>
</linearGradient>
<linearGradient id="linear3" gradientUnits="userSpaceOnUse" x1="960" y1="1575.1182" x2="960" y2="375.1181" gradientTransform="matrix(0.0248071,0,0,0.0248071,0,0)">
<stop offset="0" style="stop-color:rgb(25.882353%,25.882353%,25.882353%);stop-opacity:1;"/>
<stop offset="1" style="stop-color:rgb(38.039216%,38.039216%,38.039216%);stop-opacity:1;"/>
</linearGradient>
<linearGradient id="linear4" gradientUnits="userSpaceOnUse" x1="264.58334" y1="201.75" x2="264.58334" y2="-115.75" gradientTransform="matrix(0.093759,0,0,0.093759,0,20.158175)">
<stop offset="0" style="stop-color:rgb(100%,43.921569%,26.27451%);stop-opacity:1;"/>
<stop offset="1" style="stop-color:rgb(100%,71.764706%,30.196078%);stop-opacity:1;"/>
</linearGradient>
</defs>
<g id="surface1">
<path style=" stroke:none;fill-rule:nonzero;fill:url(#linear0);" d="M 6.945312 39.074219 L 40.683594 39.074219 L 40.683594 41.058594 L 6.945312 41.058594 Z M 6.945312 39.074219 "/>
<path style=" stroke:none;fill-rule:nonzero;fill:url(#radial0);" d="M 40.683594 39.074219 L 44.652344 39.074219 L 44.652344 37.089844 L 40.683594 37.089844 Z M 40.683594 39.074219 "/>
<path style=" stroke:none;fill-rule:nonzero;fill:url(#radial1);" d="M 6.945312 39.074219 L 2.976562 39.074219 L 2.976562 41.058594 L 6.945312 41.058594 Z M 6.945312 39.074219 "/>
<path style=" stroke:none;fill-rule:nonzero;fill:url(#radial2);" d="M 6.945312 39.074219 L 2.976562 39.074219 L 2.976562 37.089844 L 6.945312 37.089844 Z M 6.945312 39.074219 "/>
<path style=" stroke:none;fill-rule:nonzero;fill:url(#radial3);" d="M 40.683594 39.074219 L 44.652344 39.074219 L 44.652344 41.058594 L 40.683594 41.058594 Z M 40.683594 39.074219 "/>
<path style=" stroke:none;fill-rule:nonzero;fill:url(#linear1);" d="M 5.953125 9.304688 L 41.675781 9.304688 C 42.773438 9.304688 43.660156 10.195312 43.660156 11.289062 L 43.660156 37.089844 C 43.660156 38.183594 42.773438 39.074219 41.675781 39.074219 L 5.953125 39.074219 C 4.859375 39.074219 3.96875 38.183594 3.96875 37.089844 L 3.96875 11.289062 C 3.96875 10.195312 4.859375 9.304688 5.953125 9.304688 Z M 5.953125 9.304688 "/>
<path style=" stroke:none;fill-rule:nonzero;fill:url(#linear2);" d="M 43.660156 24.453125 C 35.398438 32.351562 21.40625 37.855469 5.128906 38.894531 C 5.378906 39.011719 5.660156 39.074219 5.953125 39.074219 L 41.675781 39.074219 C 42.773438 39.074219 43.660156 38.1875 43.660156 37.089844 Z M 43.660156 24.453125 "/>
<path style=" stroke:none;fill-rule:nonzero;fill:rgb(100%,100%,100%);fill-opacity:0.588235;" d="M 5.953125 9.304688 C 4.855469 9.304688 3.96875 10.191406 3.96875 11.289062 L 3.96875 11.785156 C 3.96875 10.6875 4.855469 9.800781 5.953125 9.800781 L 41.675781 9.800781 C 42.773438 9.800781 43.660156 10.6875 43.660156 11.785156 L 43.660156 11.289062 C 43.660156 10.191406 42.773438 9.304688 41.675781 9.304688 Z M 5.953125 9.304688 "/>
<path style=" stroke:none;fill-rule:nonzero;fill:rgb(0%,0%,0%);fill-opacity:0.235294;" d="M 3.96875 36.609375 L 3.96875 37.089844 C 3.96875 38.1875 4.855469 39.074219 5.953125 39.074219 L 41.675781 39.074219 C 42.773438 39.074219 43.660156 38.1875 43.660156 37.089844 L 43.660156 36.609375 C 43.660156 37.710938 42.773438 38.59375 41.675781 38.59375 L 5.953125 38.59375 C 4.855469 38.59375 3.96875 37.710938 3.96875 36.609375 Z M 3.96875 36.609375 "/>
<path style="fill:none;stroke-width:3;stroke-linecap:round;stroke-linejoin:round;stroke:rgb(12.941176%,12.941176%,12.941176%);stroke-opacity:1;stroke-miterlimit:4;" d="M 63.493937 -115.759477 L 444.499219 -115.759477 C 456.206434 -115.759477 465.663865 -106.260384 465.663865 -94.594831 L 465.663865 180.587223 C 465.663865 192.252776 456.206434 201.751869 444.499219 201.751869 L 63.493937 201.751869 C 51.828384 201.751869 42.329291 192.252776 42.329291 180.587223 L 42.329291 -94.594831 C 42.329291 -106.260384 51.828384 -115.759477 63.493937 -115.759477 Z M 63.493937 -115.759477 " transform="matrix(0.093759,0,0,0.093759,0,20.158175)"/>
<path style="fill:none;stroke-width:11.338583;stroke-linecap:round;stroke-linejoin:round;stroke:rgb(12.941176%,12.941176%,12.941176%);stroke-opacity:1;stroke-miterlimit:4;" d="M 1759.989432 985.732651 C 1426.950365 1304.127447 862.909733 1525.996026 206.751912 1567.881791 C 216.82969 1572.605749 228.16719 1575.125193 239.977086 1575.125193 L 1679.99707 1575.125193 C 1724.244813 1575.125193 1759.989432 1539.380575 1759.989432 1495.132831 Z M 1759.989432 985.732651 " transform="matrix(0.0248071,0,0,0.0248071,0,0)"/>
<path style=" stroke:none;fill-rule:nonzero;fill:url(#linear3);" d="M 20.878906 20.875 C 19.597656 20.875 18.570312 21.882812 18.570312 23.144531 C 18.570312 24.417969 19.570312 25.40625 20.859375 25.40625 C 21.222656 25.40625 21.535156 25.335938 21.917969 25.15625 L 21.917969 24.160156 C 21.578125 24.5 21.28125 24.632812 20.898438 24.632812 C 20.046875 24.632812 19.441406 24.015625 19.441406 23.140625 C 19.441406 22.308594 20.0625 21.648438 20.859375 21.648438 C 21.261719 21.648438 21.566406 21.792969 21.917969 22.136719 L 21.917969 21.144531 C 21.546875 20.953125 21.242188 20.875 20.878906 20.875 Z M 16.878906 20.902344 C 16.113281 20.902344 15.527344 21.433594 15.527344 22.144531 C 15.527344 22.742188 15.800781 23.046875 16.59375 23.335938 C 16.925781 23.449219 17.09375 23.527344 17.179688 23.582031 C 17.347656 23.691406 17.433594 23.847656 17.433594 24.03125 C 17.433594 24.382812 17.152344 24.640625 16.773438 24.640625 C 16.371094 24.640625 16.046875 24.441406 15.851562 24.0625 L 15.304688 24.589844 C 15.695312 25.160156 16.164062 25.414062 16.808594 25.414062 C 17.6875 25.414062 18.300781 24.832031 18.300781 23.992188 C 18.300781 23.300781 18.015625 22.988281 17.054688 22.636719 C 16.546875 22.449219 16.398438 22.328125 16.398438 22.09375 C 16.398438 21.820312 16.664062 21.613281 17.027344 21.613281 C 17.28125 21.613281 17.492188 21.714844 17.710938 21.964844 L 18.152344 21.382812 C 17.789062 21.066406 17.355469 20.902344 16.878906 20.902344 Z M 10.183594 20.972656 L 10.183594 25.308594 L 11.417969 25.308594 C 12.074219 25.308594 12.550781 25.15625 12.964844 24.808594 C 13.460938 24.398438 13.753906 23.785156 13.753906 23.144531 C 13.753906 21.867188 12.796875 20.972656 11.425781 20.972656 Z M 14.140625 20.972656 L 14.140625 25.308594 L 14.988281 25.308594 L 14.988281 20.972656 Z M 26.542969 20.972656 L 28.382812 25.421875 L 28.839844 25.421875 L 30.710938 20.972656 L 29.792969 20.972656 L 28.625 23.886719 L 27.46875 20.972656 Z M 31.09375 20.972656 L 31.09375 25.308594 L 33.492188 25.308594 L 33.492188 24.578125 L 31.9375 24.578125 L 31.9375 23.40625 L 33.433594 23.40625 L 33.433594 22.671875 L 31.9375 22.671875 L 31.9375 21.710938 L 33.492188 21.710938 L 33.492188 20.972656 Z M 34.050781 20.972656 L 34.050781 25.308594 L 34.898438 25.308594 L 34.898438 23.570312 L 35.007812 23.570312 L 36.179688 25.308594 L 37.21875 25.308594 L 35.851562 23.484375 C 36.492188 23.355469 36.839844 22.917969 36.839844 22.253906 C 36.839844 21.441406 36.28125 20.972656 35.304688 20.972656 Z M 34.898438 21.65625 L 35.15625 21.65625 C 35.683594 21.65625 35.972656 21.878906 35.972656 22.300781 C 35.972656 22.734375 35.683594 22.96875 35.144531 22.96875 L 34.898438 22.96875 Z M 11.027344 21.710938 L 11.253906 21.710938 C 11.800781 21.710938 12.132812 21.808594 12.414062 22.058594 C 12.707031 22.320312 12.882812 22.722656 12.882812 23.140625 C 12.882812 23.554688 12.707031 23.972656 12.414062 24.230469 C 12.148438 24.472656 11.800781 24.578125 11.253906 24.578125 L 11.027344 24.578125 Z M 11.027344 21.710938 "/>
<path style=" stroke:none;fill-rule:nonzero;fill:url(#linear4);" d="M 24.558594 20.964844 C 25.792969 20.964844 26.792969 21.964844 26.792969 23.199219 C 26.792969 24.429688 25.792969 25.429688 24.558594 25.429688 C 23.324219 25.429688 22.328125 24.429688 22.328125 23.199219 C 22.328125 21.964844 23.324219 20.964844 24.558594 20.964844 Z M 24.558594 20.964844 "/>
<path style="fill:none;stroke-width:11.338583;stroke-linecap:butt;stroke-linejoin:miter;stroke:rgb(12.941176%,12.941176%,12.941176%);stroke-opacity:1;stroke-miterlimit:4;" d="M 841.65192 841.494455 C 790.003309 841.494455 748.58994 882.120497 748.58994 932.981783 C 748.58994 984.315464 788.901052 1024.15418 840.864594 1024.15418 C 855.508865 1024.15418 868.106087 1021.319805 883.537685 1014.076402 L 883.537685 973.922755 C 869.838205 987.622235 857.870844 992.976054 842.439247 992.976054 C 808.111816 992.976054 783.704697 968.09654 783.704697 932.824317 C 783.704697 899.284213 808.741677 872.67258 840.864594 872.67258 C 857.083518 872.67258 869.36581 878.498796 883.537685 892.35574 L 883.537685 852.359559 C 868.578483 844.643761 856.296191 841.494455 841.65192 841.494455 Z M 680.407474 842.596712 C 649.544279 842.596712 625.924487 864.01199 625.924487 892.670671 C 625.924487 916.762859 636.947057 929.045151 668.912508 940.697581 C 682.297057 945.264074 689.068064 948.41338 692.5323 950.617894 C 699.303307 955.026922 702.767544 961.325533 702.767544 968.726401 C 702.767544 982.898276 691.430043 993.290985 676.155911 993.290985 C 659.936987 993.290985 646.867369 985.260255 638.994105 969.986123 L 616.948966 991.243936 C 632.695494 1014.233867 651.591328 1024.46911 677.573099 1024.46911 C 713.002787 1024.46911 737.724836 1001.006783 737.724836 967.151748 C 737.724836 939.280394 726.22987 926.683171 687.493411 912.511296 C 667.022925 904.952963 661.039244 900.071539 661.039244 890.623622 C 661.039244 879.601053 671.746883 871.255393 686.391154 871.255393 C 696.626398 871.255393 705.129523 875.34949 713.947578 885.427268 L 731.741155 861.964941 C 717.096884 849.210254 699.618238 842.596712 680.407474 842.596712 Z M 410.511984 845.431087 L 410.511984 1020.217548 L 460.271013 1020.217548 C 486.72518 1020.217548 505.935944 1014.076402 522.627264 1000.061992 C 542.625354 983.528137 554.43525 958.806088 554.43525 932.981783 C 554.43525 881.490636 515.856256 845.431087 460.585943 845.431087 Z M 570.024313 845.431087 L 570.024313 1020.217548 L 604.194278 1020.217548 L 604.194278 845.431087 Z M 1069.976576 845.431087 L 1144.142723 1024.784041 L 1162.56616 1024.784041 L 1237.992029 845.431087 L 1200.987689 845.431087 L 1153.90557 962.900186 L 1107.295847 845.431087 Z M 1253.423627 845.431087 L 1253.423627 1020.217548 L 1350.107309 1020.217548 L 1350.107309 990.77154 L 1287.436127 990.77154 L 1287.436127 943.531956 L 1347.745329 943.531956 L 1347.745329 913.928484 L 1287.436127 913.928484 L 1287.436127 875.192025 L 1350.107309 875.192025 L 1350.107309 845.431087 Z M 1372.624844 845.431087 L 1372.624844 1020.217548 L 1406.794809 1020.217548 L 1406.794809 950.145498 L 1411.203837 950.145498 L 1458.443421 1020.217548 L 1500.329186 1020.217548 L 1445.216338 946.681262 C 1471.040644 941.484908 1485.055053 923.848796 1485.055053 897.079699 C 1485.055053 864.326921 1462.537518 845.431087 1423.171198 845.431087 Z M 1406.794809 872.987511 L 1417.187518 872.987511 C 1438.445331 872.987511 1450.097761 881.963032 1450.097761 898.969282 C 1450.097761 916.447928 1438.445331 925.895845 1416.715122 925.895845 L 1406.794809 925.895845 Z M 444.524485 875.192025 L 453.657471 875.192025 C 475.70261 875.192025 489.087159 879.128657 500.424659 889.206435 C 512.234555 899.756609 519.320493 915.975532 519.320493 932.824317 C 519.320493 949.515637 512.234555 966.364422 500.424659 976.75713 C 489.71702 986.519978 475.70261 990.77154 453.657471 990.77154 L 444.524485 990.77154 Z M 444.524485 875.192025 " transform="matrix(0.0248071,0,0,0.0248071,0,0)"/>
<path style="fill:none;stroke-width:3;stroke-linecap:round;stroke-linejoin:round;stroke:rgb(12.941176%,12.941176%,12.941176%);stroke-opacity:1;stroke-miterlimit:4;" d="M 261.93332 8.603647 C 275.098729 8.603647 285.764378 19.269295 285.764378 32.434704 C 285.764378 45.558451 275.098729 56.224099 261.93332 56.224099 C 248.767911 56.224099 238.143925 45.558451 238.143925 32.434704 C 238.143925 19.269295 248.767911 8.603647 261.93332 8.603647 Z M 261.93332 8.603647 " transform="matrix(0.093759,0,0,0.093759,0,20.158175)"/>
</g>
</svg>
